public/fonts/icons/eye.svg

<?xml version="1.0" encoding="UTF-8" standalone="no"?>
<svg width="512px" height="512px" viewBox="0 0 512 512" version="1.1" xmlns="http://www.w3.org/2000/svg" xmlns:xlink="http://www.w3.org/1999/xlink" xmlns:sketch="http://www.bohemiancoding.com/sketch/ns">
    <!-- Generator: Sketch 3.2 (9961) - http://www.bohemiancoding.com/sketch -->
    <title>512</title>
    <desc>Created with Sketch.</desc>
    <defs></defs>
    <g id="Page-1" stroke="none" stroke-width="1" fill="none" fill-rule="evenodd" sketch:type="MSPage">
        <g id="512" sketch:type="MSArtboardGroup" fill="#000000">
            <path d="M256,431 C397.384895,431 512,256 512,256 C512,256 397.384895,81 256,81 C114.615105,81 0,256 0,256 C0,256 114.615105,431 256,431 L256,431 Z M256.533333,350.969512 C308.669013,350.969512 350.933333,308.689085 350.933333,256.533537 C350.933333,204.377988 308.669013,162.097561 256.533333,162.097561 C204.397654,162.097561 162.133333,204.377988 162.133333,256.533537 C162.133333,308.689085 204.397654,350.969512 256.533333,350.969512 L256.533333,350.969512 Z M256,323.22561 C293.113536,323.22561 323.2,293.12768 323.2,256 C323.2,218.87232 293.113536,188.77439 256,188.77439 C218.886464,188.77439 188.8,218.87232 188.8,256 C188.8,293.12768 218.886464,323.22561 256,323.22561 L256,323.22561 Z" id="eye" sketch:type="MSShapeGroup"></path>
        </g>
    </g>
</svg>

<svg width="512" height="512" viewBox="0 0 512 512" xmlns="http://www.w3.org/2000/svg"><title>Eye</title><path d="M256 431c141.385 0 256-175 256-175S397.385 81 256 81 0 256 0 256s114.615 175 256 175zm.533-80.03c52.136 0 94.4-42.28 94.4-94.436 0-52.156-42.264-94.436-94.4-94.436-52.135 0-94.4 42.28-94.4 94.436 0 52.155 42.265 94.436 94.4 94.436zM256 323.226c37.114 0 67.2-30.098 67.2-67.226s-30.086-67.226-67.2-67.226c-37.114 0-67.2 30.098-67.2 67.226s30.086 67.226 67.2 67.226z" fill="#000" fill-rule="evenodd"/></svg>
